assets/images/icons/lightbulb.svg

<svg width="16" height="16" viewBox="0 0 16 16" fill="none" xmlns="http://www.w3.org/2000/svg">
<mask id="mask0_12413_286" style="mask-type:alpha" maskUnits="userSpaceOnUse" x="3" y="1" width="10" height="14">
<path fill-rule="evenodd" clip-rule="evenodd" d="M8 1.33331C5.42666 1.33331 3.33333 3.42665 3.33333 5.99998C3.33333 7.58665 4.12666 8.97998 5.33333 9.82665V11.3333C5.33333 11.7 5.63333 12 5.99999 12H10C10.3667 12 10.6667 11.7 10.6667 11.3333V9.82665C11.8733 8.97998 12.6667 7.58665 12.6667 5.99998C12.6667 3.42665 10.5733 1.33331 8 1.33331ZM5.99999 14C5.99999 14.3666 6.29999 14.6666 6.66666 14.6666H9.33333C9.7 14.6666 10 14.3666 10 14V13.3333H5.99999V14ZM9.33333 9.13331L9.89999 8.73331C10.8 8.10665 11.3333 7.08665 11.3333 5.99998C11.3333 4.15998 9.83999 2.66665 7.99999 2.66665C6.15999 2.66665 4.66666 4.15998 4.66666 5.99998C4.66666 7.08665 5.19999 8.10665 6.09999 8.73331L6.66666 9.13331V10.6666H9.33333V9.13331Z" fill="white"/>
</mask>
<g mask="url(#mask0_12413_286)">
<rect width="16" height="16" fill="#646970"/>
</g>
</svg>

<svg xmlns="http://www.w3.org/2000/svg" width="16" height="16" viewBox="0 0 16 16" fill="none"><mask id="a" width="10" height="14" x="3" y="1" maskUnits="userSpaceOnUse" style="mask-type:alpha"><path fill="#fff" fill-rule="evenodd" d="M8 1.3333C5.4267 1.3333 3.3333 3.4267 3.3333 6c0 1.5866.7934 2.98 2 3.8267v1.5066c0 .3667.3.6667.6667.6667h4c.3667 0 .6667-.3.6667-.6667V9.8267c1.2066-.8467 2-2.24 2-3.8267 0-2.5734-2.0934-4.6667-4.6667-4.6667ZM6 14c0 .3666.3.6666.6667.6666h2.6666c.3667 0 .6667-.3.6667-.6666v-.6667H6V14Zm3.3333-4.8667.5667-.4c.9-.6266 1.4333-1.6467 1.4333-2.7333C11.3333 4.16 9.84 2.6667 8 2.6667 6.16 2.6667 4.6667 4.16 4.6667 6c0 1.0866.5333 2.1067 1.4333 2.7333l.5667.4v1.5333h2.6666V9.1333Z" clip-rule="evenodd"/></mask><g mask="url(#a)"><path fill="#646970" d="M0 0h16v16H0z"/></g></svg>
